X: 66
T:New Coldstream March,(Harmony). WCl.65
M:C
Q:100
S:William Clarke MS, Lincoln,1770
R:March
O:Lincoln
A:England
Z:vmp.Chris Partington
K:D
D2F2|AGFE|D2F2|GG{GA}B)A/2G/2|!
F>GFF|GG{GA}BA/G/|F>GFF|AGFd|!
c>edd|cBAB|c>dcc|B2B2|\
c2z/4A/4B/4c/4:|!
|:d2F2|GGGe/d/|cccf|e"tr"dcz/4A/4B/4c/4|!
d2f2|agfe|d2F2|GG{GA}BA/G/|!
F>GFF|GG{GA}BA/G/|F>GFF|Ee{ef}gf/e/|!
deff|d2"tr"c2|1d3z/4A/4B/4c/4:|2d4|]
